public/assets/elements/staking2.svg

<svg fill="none" height="232" viewBox="0 0 209 232" width="209" xmlns="http://www.w3.org/2000/svg" xmlns:xlink="http://www.w3.org/1999/xlink"><linearGradient id="a" gradientUnits="userSpaceOnUse" x1="28.9" x2="33.2777" y1="167.581" y2="151.978"><stop offset="0" stop-color="#3f07ed"/><stop offset="1" stop-color="#ab95f0"/></linearGradient><linearGradient id="b" gradientUnits="userSpaceOnUse" x1="147.859" x2="144.093" y1="118.234" y2="84.4118"><stop offset="0" stop-color="#928da2"/><stop offset="1" stop-color="#ab95f0"/></linearGradient><mask id="c" fill="#fff"><path clip-rule="evenodd" d="m169.215 78.9805-45.727 49.6135 7.251 6.683.01-.01c3.946 2.943 16.933-5.354 29.342-18.817s19.621-27.083 16.367-30.7766l.009-.0097-.163-.1498c-.009-.0088-.019-.0176-.028-.0263-.01-.0088-.019-.0174-.029-.026z" fill="#fff" fill-rule="evenodd"/></mask><g stroke="#3f07ed" stroke-linejoin="round"><path d="m67 14.4286 13.4286-13.4286v33.5714l-13.4286 13.4286z" fill="#f9f8f2"/><path d="m67 47.9999 13.4286-13.4286h128.0004l-13.429 13.4286z" fill="#f9f8f2"/><path d="m80.4287 1h128.0713v33.5714h-128.0713z" fill="#fff"/><path d="m1 148.429 7.91304-7.429v18.571l-7.91304 7.429z" fill="#fff"/><path d="m1 167 7.63711-6.783h70.36289l-7.5 6.783z" fill="url(#a)"/><path d="m9 141h70v19h-70z" fill="#fff"/></g><g fill="#f8cdf3"><circle cx="173.5" cy="155.5" r="8" stroke="#000"/><circle cx="82.5" cy="109.5" r="8" stroke="#000"/><circle cx="127.5" cy="223.5" r="8" stroke="#000"/></g><path clip-rule="evenodd" d="m169.215 78.9805-45.727 49.6135 7.251 6.683.01-.01c3.946 2.943 16.933-5.354 29.342-18.817s19.621-27.083 16.367-30.7766l.009-.0097-.163-.1498c-.009-.0088-.019-.0176-.028-.0263-.01-.0088-.019-.0174-.029-.026z" fill="#311589" fill-rule="evenodd"/><path d="m123.488 128.594-.409-.377-.377.409.409.377zm45.727-49.6135.377-.4091-.409-.3771-.377.4091zm-38.476 56.2965-.377.409.409.377.377-.409zm.01-.01.332-.446-.402-.3-.34.369zm45.709-49.5936-.41-.377-.339.3686.331.3762zm.009-.0097.409.377.377-.409-.409-.3771zm-.163-.1498-.383.4033.006.0058zm-.057-.0523-.377.4092.007.0057zm-52.35 43.5094 45.727-49.6135-.818-.7541-45.727 49.6136zm7.219 5.897-7.251-6.683-.754.818 7.251 6.683zm-.777.022-.009.01.818.754.01-.01zm29.343-18.817c-6.181 6.706-12.495 12.112-17.736 15.469-2.623 1.681-4.954 2.832-6.849 3.385-1.926.563-3.249.466-4.016-.106l-.665.892c1.207.9 2.986.869 4.993.283 2.038-.596 4.47-1.808 7.137-3.517 5.342-3.421 11.727-8.895 17.954-15.652zm16.358-30.0318c.632.7175.837 2.0285.433 3.994-.397 1.9337-1.355 4.3503-2.816 7.1018-2.92 5.497-7.794 12.229-13.975 18.936l.818.754c6.227-6.757 11.164-13.566 14.139-19.1681 1.486-2.798 2.497-5.3203 2.924-7.3997.421-2.0478.307-3.8243-.688-4.9536zm.017-.7545-.009.0097.819.7541.009-.0098zm-.13.6363.162.1498.755-.8182-.163-.1498zm-.028-.0263c.007.0067.014.0136.022.0204l.766-.8064c-.011-.0108-.023-.0216-.034-.0322zm-.022-.0202c.007.0067.014.0134.022.0202l.754-.8182c-.012-.0107-.023-.0212-.035-.0317zm-7.039-6.4869 7.032 6.4811.754-.8181-7.032-6.4812z" fill="#000" mask="url(#c)"/><path d="m169.218 79.3606c.812.7489 1.071 2.124.717 4.0918-.351 1.9523-1.291 4.4034-2.75 7.1932-2.914 5.5758-7.866 12.4464-14.168 19.2844-6.302 6.837-12.747 12.332-18.068 15.691-2.661 1.681-5.028 2.818-6.945 3.326-1.933.513-3.324.367-4.137-.382-.812-.749-1.071-2.124-.717-4.092.35-1.952 1.291-4.403 2.749-7.193 2.915-5.576 7.867-12.447 14.169-19.2843 6.302-6.8376 12.747-12.3326 18.067-15.6914 2.662-1.6805 5.029-2.8174 6.946-3.3259 1.932-.5126 3.324-.3667 4.137.3822z" fill="url(#b)" stroke="#000" stroke-width=".556343"/></svg>

<svg width="209" height="232" viewBox="0 0 209 232" fill="none" xmlns="http://www.w3.org/2000/svg">
    <path d="M67 14.4286L80.4286 1V34.5714L67 48V14.4286Z" fill="#F9F8F2" stroke="#3F07ED" stroke-linejoin="round"/>
    <path d="M67 47.9999L80.4286 34.5713H208.429L195 47.9999H67Z" fill="#F9F8F2" stroke="#3F07ED" stroke-linejoin="round"/>
    <path d="M80.4287 1H208.5V34.5714H80.4287V1Z" fill="white" stroke="#3F07ED" stroke-linejoin="round"/>
    <path d="M1 148.429L8.91304 141V159.571L1 167V148.429Z" fill="white" stroke="#3F07ED" stroke-linejoin="round"/>
    <path d="M1 167L8.63711 160.217H79L71.5 167L1 167Z" fill="url(#paint0_linear_3131_132)" stroke="#3F07ED" stroke-linejoin="round"/>
    <rect x="9" y="141" width="70" height="19" fill="white" stroke="#3F07ED" stroke-linejoin="round"/>
    <circle cx="173.5" cy="155.5" r="8" fill="#F8CDF3" stroke="black" class="svg-floating speed2 delay3"/>
    <circle cx="82.5" cy="109.5" r="8" fill="#F8CDF3" stroke="black"/>
    <circle cx="127.5" cy="223.5" r="8" fill="#F8CDF3" stroke="black" class="svg-floating speed1"/>
    <mask id="path-10-inside-1_3131_132" fill="white">
        <path fill-rule="evenodd" clip-rule="evenodd" d="M169.215 78.9805L123.488 128.594L130.739 135.277L130.749 135.267C134.695 138.21 147.682 129.913 160.091 116.45C172.5 102.987 179.712 89.367 176.458 85.6734L176.467 85.6637L176.304 85.5139C176.295 85.5051 176.285 85.4963 176.276 85.4876C176.266 85.4788 176.257 85.4702 176.247 85.4616L169.215 78.9805Z"/>
    </mask>
    <g class="svg-floating speed3">
        <path fill-rule="evenodd" clip-rule="evenodd" d="M169.215 78.9805L123.488 128.594L130.739 135.277L130.749 135.267C134.695 138.21 147.682 129.913 160.091 116.45C172.5 102.987 179.712 89.367 176.458 85.6734L176.467 85.6637L176.304 85.5139C176.295 85.5051 176.285 85.4963 176.276 85.4876C176.266 85.4788 176.257 85.4702 176.247 85.4616L169.215 78.9805Z" fill="#311589"/>
        <path d="M123.488 128.594L123.079 128.217L122.702 128.626L123.111 129.003L123.488 128.594ZM169.215 78.9805L169.592 78.5714L169.183 78.1943L168.806 78.6034L169.215 78.9805ZM130.739 135.277L130.362 135.686L130.771 136.063L131.148 135.654L130.739 135.277ZM130.749 135.267L131.081 134.821L130.679 134.521L130.339 134.89L130.749 135.267ZM176.458 85.6734L176.048 85.2964L175.709 85.665L176.04 86.0412L176.458 85.6734ZM176.467 85.6637L176.876 86.0407L177.253 85.6317L176.844 85.2546L176.467 85.6637ZM176.304 85.5139L175.921 85.9172L175.927 85.923L176.304 85.5139ZM176.247 85.4616L175.87 85.8708L175.877 85.8765L176.247 85.4616ZM123.897 128.971L169.624 79.3575L168.806 78.6034L123.079 128.217L123.897 128.971ZM131.116 134.868L123.865 128.185L123.111 129.003L130.362 135.686L131.116 134.868ZM130.339 134.89L130.33 134.9L131.148 135.654L131.158 135.644L130.339 134.89ZM159.682 116.073C153.501 122.779 147.187 128.185 141.946 131.542C139.323 133.223 136.992 134.374 135.097 134.927C133.171 135.49 131.848 135.393 131.081 134.821L130.416 135.713C131.623 136.613 133.402 136.582 135.409 135.996C137.447 135.4 139.879 134.188 142.546 132.479C147.888 129.058 154.273 123.584 160.5 116.827L159.682 116.073ZM176.04 86.0412C176.672 86.7587 176.877 88.0697 176.473 90.0352C176.076 91.9689 175.118 94.3855 173.657 97.137C170.737 102.634 165.863 109.366 159.682 116.073L160.5 116.827C166.727 110.07 171.664 103.261 174.639 97.6589C176.125 94.8609 177.136 92.3386 177.563 90.2592C177.984 88.2114 177.87 86.4349 176.875 85.3056L176.04 86.0412ZM176.057 85.2867L176.048 85.2964L176.867 86.0505L176.876 86.0407L176.057 85.2867ZM175.927 85.923L176.089 86.0728L176.844 85.2546L176.681 85.1048L175.927 85.923ZM175.899 85.8967C175.906 85.9034 175.913 85.9103 175.921 85.9171L176.687 85.1107C176.676 85.0999 176.664 85.0891 176.653 85.0785L175.899 85.8967ZM175.877 85.8765C175.884 85.8832 175.891 85.8899 175.899 85.8967L176.653 85.0785C176.641 85.0678 176.63 85.0573 176.618 85.0468L175.877 85.8765ZM168.838 79.3896L175.87 85.8707L176.624 85.0526L169.592 78.5714L168.838 79.3896Z" fill="black" mask="url(#path-10-inside-1_3131_132)"/>
        <path d="M169.218 79.3606C170.03 80.1095 170.289 81.4846 169.935 83.4524C169.584 85.4047 168.644 87.8558 167.185 90.6456C164.271 96.2214 159.319 103.092 153.017 109.93C146.715 116.767 140.27 122.262 134.949 125.621C132.288 127.302 129.921 128.439 128.004 128.947C126.071 129.46 124.68 129.314 123.867 128.565C123.055 127.816 122.796 126.441 123.15 124.473C123.5 122.521 124.441 120.07 125.899 117.28C128.814 111.704 133.766 104.833 140.068 97.9957C146.37 91.1581 152.815 85.6631 158.135 82.3043C160.797 80.6238 163.164 79.4869 165.081 78.9784C167.013 78.4658 168.405 78.6117 169.218 79.3606Z" fill="url(#paint1_linear_3131_132)" stroke="black" stroke-width="0.556343"/>
    </g>
    <defs>
        <linearGradient id="paint0_linear_3131_132" x1="28.9" y1="167.581" x2="33.2777" y2="151.978" gradientUnits="userSpaceOnUse">
            <stop stop-color="#3F07ED"/>
            <stop offset="1" stop-color="#AB95F0"/>
        </linearGradient>
        <linearGradient id="paint1_linear_3131_132" x1="147.859" y1="118.234" x2="144.093" y2="84.4118" gradientUnits="userSpaceOnUse">
            <stop stop-color="#928DA2"/>
            <stop offset="1" stop-color="#AB95F0"/>
        </linearGradient>
    </defs>
</svg>
